svgs/regular/arrow-up-right-and-arrow-down-left-from-center.svg

<svg xmlns="http://www.w3.org/2000/svg" viewBox="0 0 512 512"><!-- Font Awesome Pro 6.0.0-alpha2 by @fontawesome - https://fontawesome.com License - https://fontawesome.com/license (Commercial License) --><path d="M497.172 1.852C494.238 0.641 491.125 0 488 0H344C330.75 0 320 10.75 320 24S330.75 48 344 48H430.062L295.031 183.031C285.656 192.406 285.656 207.594 295.031 216.969S319.594 226.344 328.969 216.969L464 81.938V168C464 181.25 474.75 192 488 192S512 181.25 512 168V24C512 20.867 511.359 17.75 510.145 14.82C507.711 8.957 503.035 4.285 497.172 1.852ZM14.828 510.148C17.762 511.359 20.875 512 24 512H168C181.25 512 192 501.25 192 488S181.25 464 168 464H81.938L216.969 328.969C226.344 319.594 226.344 304.406 216.969 295.031S192.406 285.656 183.031 295.031L48 430.062V344C48 330.75 37.25 320 24 320S0 330.75 0 344V488C0 491.133 0.641 494.25 1.855 497.18C4.289 503.043 8.965 507.715 14.828 510.148Z"/></svg>

<svg xmlns="http://www.w3.org/2000/svg" viewBox="0 0 512 512"><!--! Font Awesome Pro 6.4.0 by @fontawesome - https://fontawesome.com License - https://fontawesome.com/license (Commercial License) Copyright 2023 Fonticons, Inc. --><path d="M295 183c-9.4 9.4-9.4 24.6 0 33.9s24.6 9.4 33.9 0l135-135V168c0 13.3 10.7 24 24 24s24-10.7 24-24V24c0-13.3-10.7-24-24-24H344c-13.3 0-24 10.7-24 24s10.7 24 24 24h86.1L295 183zM217 329c9.4-9.4 9.4-24.6 0-33.9s-24.6-9.4-33.9 0L48 430.1V344c0-13.3-10.7-24-24-24s-24 10.7-24 24V488c0 13.3 10.7 24 24 24H168c13.3 0 24-10.7 24-24s-10.7-24-24-24H81.9L217 329z"/></svg>
